X:64
T: Megérett a kökény
K: F
M: 2/4
L: 1/4
gf | d/e/f/d/ | 
gf | d/e/f/d/ | 
d/e/f/g/ | a g | d2 | 
c c/d/ | B B/G/ |
c c/d/ | B B/G/ |
G/A/B/c/ | dc | G2 | 

